X: 1
T: Rosin the Beau
T: Old Rosin the Beau
C: Trad
R: Jig
M: 6/8
L: 1/8
K: Gmaj
Z: ABC transcription by Verge Roller
r: 32
|: D2 | "G" GFG "Bm" BAG | "G" d3 "C" e2 e | "G" dBG "Bm" GAB | "C" E2 E "D" FED |
"G" GFG "Bm" BAG | "G" d2 d "C" efg | "G" dBG "D" ABA | "G" G2-G z :|
|: Bc | "G" dBd "Bm" def | "C" g2 g gfe | "G" dBG "Em" GAB | "C" E2 E "D" FED |
"G" GFG "Bm" BAG | "G" d2 d "C" efg | "G" dBG "D" ABA | "G" G2-G z :|
